X:1
T:La vita alberga
T:La vita alberga
T:Gio.Girolamo Kapsperger
C:Gio.Girolamo Kapsperger
%%score [ 1 2 ] { ( 3 5 ) | 4 }
L:1/8
Q:1/4=120
M:3/4
K:F
V:1 treble nm="Soprano 1" snm="S 1"
V:2 treble nm="Soprano 2" snm="S 2"
V:3 treble nm="BC" snm="BC"
V:5 treble 
V:4 bass 
V:1
 c2 F2 G2 | A3 B c2 | B4 c2 | A4 A2 | c2 F2 G2 | A3 B c2 | c4 =B2 | c4 c2 | c2 G2 A2 | B2 c B2 z | %10
w: La vi- t'al-|ber- ga do-|v'e bel-|lez- za,|ma l'em- pia|ma- ga che|l'al- ma'im-|pia- ga,|da sua bel-|ta- de spi-|
w: Qual vi- bra'il|Cie- lo sua|fiam- m'ar-|den- te,|co- si m'as-|sa- le d'A-|mor le|stra- le,|on- d'e che|l'al- ma man-|
w: S'un che v'o-|no- ra ve-|dre- te|mor- to|che van- to'ha-|vre- te se|mai- splen-|de- te,|O pur ne-|ga- te un|
w: ||||* van- *||||||
 A3 G A2 | G4 G2 | B2 F2 G2 | A3 B A2 | G3 A G2 |[M:2/4] F2 F2 :: z f ed |[M:4/4] c3 d c2 BA | %18
w: ran- do fie-|rez- za|vuol che si|mo- ra chi|fi- do l'o-|no- ra,|ma s'io mor-|ro, mor- ro per co-|
w: ca- re si|sen- te|em- pia mer-|ce- de di|can- di- da|fe- de,|||
w: bre- ve con-|for- to|in s'ul mo-|ri- re a|tan- to mar-|ti- re,|||
w: ||||||||
 G3 G AB c2 | B2 A2 BA G2 | Fccc c4 | dc BA G4 | z8 | z8 | c4 dc BA | BA GF G4 |[M:2/4] F4 :| %27
w: lei, co- lei che so-|la puo dar la vi-|ta, a- it', a- it',|a- * it' * ta,|||vi- ta * de _|la _ mia _ vi-|ta.|
w: |||||||||
w: |||||||||
w: |||||||||
V:2
 A2 D2 E2 | F3 G A2 | G4 E2 | F4 F2 | A2 D2 E2 | F3 G A2 | F4 D2 | E4 E2 | A2 E2 F2 | G3 A G2 | %10
w: ||||||||||
w: La vi- t'al-|ber- ga do-|v'e be-|lez- za|ma l'e- pia|ma- ga che|l'al- ma'im-|pra- ga,|da sua bel-|ta- de sp-|
w: Qual vi- bra'il|Cie- lo sua|fiam- m'ar-|den- te,|co- si m'as-|sa- le d'A|mor le|stra- le,|on- d'e che|l'al- ma man-|
w: S'un che v'o-|no- ra ve-|dre- te|mor- to,|che van- to|ha- vre- te|se mai|splen- de-|te'o pur ne-|ga- te un|
 ^F3 E F2 | G4 G2 | G2 D2 E2 | F3 G F2 | E3 D E2 |[M:2/4] F2 F2 :: z d cB |[M:4/4] A3 B A2 GF | %18
w: ||vuol che si|mo- ra chi|fi- do l'o-|no- ra,|ma sio mor-|ro, mor- ro per co-|
w: ran- do fie-|rez- za|em- pia mer-|ce- de di|can- di- da|fe- de,|||
w: ca- re si|sen- te|in- s'ul mo-|ri- re a|tan- to mar-|ti- re,|||
w: bre- ve con-|for- to|||||||
 E3 E FG A2 | G2 F2 GF E2 | F4 z4 | z8 | z AAA G4 | DE FG E4 | A4 BA GF | GF ED E F2 E | %26
w: lei, co- lei che so-|la puo dat la vi-|ta,||a- it', a- it',|a- * i- * ta,|vi- ta _ de _|la _ mia _ vi- * *|
w: ||||||||
w: ||||||||
w: ||||||||
[M:2/4] F4 :| %27
w: ta.|
w: |
w: |
w: |
V:3
 [Ac]6 | [Ac]6 | G6 | x6 | x6 | [Fc]4 A2 | c4 =B2 | [EGc]6 | [Ec]2 [EG]2 [FA]2 | [Bd]4 [DG]2 | %10
 [^FA]4 [DA]2 | [DB]4 [DB]2 | [DB]6 | [Ac]6 | [DB]2 [EG]4 |[M:2/4] [Ac]4 :: [Ac]4 |[M:4/4] [FAc]8 | %18
 [EGc]6 A2 | [DGB]2 [FA]2 [DB]2 [EGc]2 | [FAc]4 [EGc]4 | d2 B2 c4 | [Ac]4 [EG]4 | %23
 [DFB]2 [Ec]2 [EG]4 | [FAc]4 [DGB]4 | [EG][FA] [DFB]2 [CGc]4 |[M:2/4] [FAc]4 :| %27
V:4
 F,6 | F,4 F,2 | G,2 C,4 | F,4 F,2 | F,6 | F,4 F,2 | F,2 G,4 | C,4 C,2 | C,6 | G,4 G,2 | D,6 | %11
 G,,4 G,,2 | G,4 G,2 | F,4 F,2 | B,,2 C,4 |[M:2/4] F,,4 :: F,,4 |[M:4/4] F,8 | C,6 C,2 | %19
 G,2 D,2 B,,2 C,2 | F,,4 C,4 | A,,2 B,,2 [C,G,]4 | F,4 C,4 | B,,2 A,,2 C,4 | F,,4 G,,4 | %25
 A,,2 B,,2 C,4 |[M:2/4] F,,4 :| %27
V:5
 x6 | x6 | D2 E4 | [Ac]6 | [Ac]6 | x6 | A2 E2 F2 | x6 | x6 | x6 | x6 | x6 | x6 | x6 | x6 | %15
[M:2/4] x4 :: x4 |[M:4/4] x8 | x8 | x8 | x8 | F2 G2 F2 E2 | x8 | x8 | x8 | x8 |[M:2/4] x4 :| %27

